images/icons/v2/group-outline-40.svg

<svg height="40" viewBox="0 0 40 40" width="40" xmlns="http://www.w3.org/2000/svg"><path d="m29 16.75a6.508 6.508 0 0 1 6.5 6.5v.75h1.5v-.75a8 8 0 0 0 -6.7-7.885 6.5 6.5 0 1 0 -8.6 0 7.941 7.941 0 0 0 -2.711.971 6.5 6.5 0 1 0 -9.289 9.029 8 8 0 0 0 -6.7 7.885v.75h1.5v-.75a6.508 6.508 0 0 1 6.5-6.5h6a6.508 6.508 0 0 1 6.5 6.5v.75h1.5v-.75a8 8 0 0 0 -6.7-7.885 6.468 6.468 0 0 0 1.508-7.771 6.453 6.453 0 0 1 3.192-.844zm-15 8.75a5 5 0 1 1 5-5 5 5 0 0 1 -5 5zm7-15a5 5 0 1 1 5 5 5 5 0 0 1 -5-5z"/></svg>

<svg xmlns="http://www.w3.org/2000/svg" width="40" height="40" viewBox="0 0 40 40"><title>group-outline-40</title><path d="M29,16.75a6.508,6.508,0,0,1,6.5,6.5V24H37v-.75a8,8,0,0,0-6.7-7.885,6.5,6.5,0,1,0-8.6,0,7.941,7.941,0,0,0-2.711.971A6.5,6.5,0,1,0,9.7,25.365,8,8,0,0,0,3,33.25V34H4.5v-.75a6.508,6.508,0,0,1,6.5-6.5h6a6.508,6.508,0,0,1,6.5,6.5V34H25v-.75a8,8,0,0,0-6.7-7.885,6.468,6.468,0,0,0,1.508-7.771A6.453,6.453,0,0,1,23,16.75ZM14,25.5a5,5,0,1,1,5-5A5,5,0,0,1,14,25.5Zm7-15a5,5,0,1,1,5,5A5,5,0,0,1,21,10.5Z"/></svg>
